X: 34239
T: Reel With The Birl, The
R: reel
M: 4/4
K: Edorian
E2BE DEBE|E2BE AFDF|E2BE dEBE|eBdB AFDF|
E2BE DEBE|E2BE AFDF|GBAF G3B|1 dedB AFDF:|2 d3B A4||
BA(3Bcd e4|fdd2 ed(3Bcd|g2gf g2eg|faab afef|
g2bg faaf|edfe edBA|GBAF GABc|1 dedB A3B:|2 d3B AFDF||

